X: 814
T: the Quarrelsome Piper   #2
R: hornpipe
%S: s:3 b:10(4+3+3)
B: Francis O'Neill: "The Dance Music of Ireland" (1907) #814
Z: Frank Nordberg - http://www.musicaviva.com
F: http://www.musicaviva.com/abc/tunes/ireland/oneill-1001/0814/oneill-1001-0814-1.abc
N: Compacted via repeats and multiple endings [JC]
N: Compacted by using labels and play order [JC]
P: Play (A1A2)x2 + (BA2)x2
M: 2/4
L: 1/16
K: G
(EF) "^A"|: (3GAG (3FGF (3EFE (3DED | B>DG>B A>GE>F | G>Bd>f e>d [1,3 c>A | G>gf>e 
(3ded (3cBA :|[2,4 (3cAF | G>BA>F "^fine"G2 "^B"|[| B2 | e>B (3BcB g>B (3BcB |
| e>Bg>B e>B (3BcB | d>A (3ABA f>A (3ABA | d>gf>e (3ded (3cB"^->A2"A |]
